svg/color/pepon.svg

<svg width="40" height="40" viewBox="0 0 40 40" fill="none" xmlns="http://www.w3.org/2000/svg">
<g clip-path="url(#clip0_820_3777)">
<path d="M20 0C31.0457 0 40 8.9543 40 20C40 31.0457 31.0457 40 20 40C8.95431 40 7.90517e-06 31.0457 0 20C6.58765e-07 8.95431 8.95431 1.97595e-06 20 0Z" fill="#D4DAE8"/>
<path d="M26 6C30.4183 6 34 9.58172 34 14V26C34 30.4183 30.4183 34 26 34H14C9.58172 34 6 30.4183 6 26V14C6 9.58172 9.58172 6 14 6H26Z" fill="#28458E"/>
<g clip-path="url(#clip1_820_3777)">
<path d="M19.6351 10C20.9858 10 21.9961 10.5578 21.9961 11.6098C21.9961 11.9345 21.9038 12.2739 21.7342 12.6153C22.5302 12.9148 23.2822 13.3035 23.9807 13.7611C24.2196 13.2958 24.3498 12.8368 24.3498 12.4027C24.3498 11.0376 23.2023 10.5041 22.889 10.405L22.9079 10.3453C23.915 10.5175 25.3656 11.3506 25.3657 12.883C25.3657 13.4148 25.2255 13.953 24.9701 14.4828C25.7543 15.1168 26.4516 15.8383 27.045 16.6101C27.4403 15.8978 27.6598 15.1745 27.6599 14.4689C27.6599 13.7927 27.4762 13.3713 27.3724 13.1839L27.4258 13.1382C27.5628 13.2422 28.3857 13.9281 28.3857 15.2252C28.3857 16.0322 28.1545 16.8367 27.7399 17.6129C28.2538 18.4396 28.6511 19.3024 28.9123 20.1625C29.4051 19.2606 29.6815 18.2952 29.6679 17.2849L29.7419 17.2668C29.7706 17.361 29.9197 17.7844 29.9197 18.4474C29.9197 19.4138 29.649 20.3528 29.1679 21.238C29.238 21.6518 29.2743 22.0608 29.2743 22.4607C29.2682 23.4267 29.1918 24.0253 29.0557 24.4599L28.949 24.4319C28.9884 23.6077 28.9149 22.7679 28.7398 21.9332C28.1441 22.7976 27.349 23.5992 26.4174 24.3115C26.6549 25.0782 26.8479 25.8626 26.9864 26.6592C27.6094 26.1655 28.1412 25.6453 28.5639 25.1288L28.6496 25.1867C27.4518 27.2654 24.4766 30 20.0752 30C18.1293 30 16.8537 29.4646 16.4777 29.3262L16.5038 29.2444C17.802 29.5124 19.0675 29.552 20.2699 29.4212C19.2254 29.0372 18.2573 28.4049 17.4127 27.5649C17.2105 27.5738 17.0091 27.5787 16.8086 27.5787C13.6696 27.5787 12.0305 26.0539 11.6844 25.4347L11.7403 25.3934C12.6089 26.153 14.3196 26.7301 16.316 26.7301C16.4307 26.7301 16.5465 26.7276 16.6634 26.724C16.0402 25.9364 15.5092 25.0187 15.0951 23.9933C11.6058 23.9175 10.0136 22.1577 10.0858 20.5909H10.1513C10.2944 21.4227 11.4806 22.911 14.678 22.911C14.69 22.911 14.7021 22.9106 14.7141 22.9106C14.4368 21.9936 14.2475 21.0064 14.1612 19.9618C11.8421 19.8251 10.5876 18.597 10.5876 17.2797C10.5876 16.5262 10.9631 15.7906 11.0569 15.6284L11.1247 15.6545C11.1002 15.739 11.0083 16.0302 11.0083 16.472C11.0083 17.8533 12.2045 18.8059 14.109 18.8278C14.1084 18.7713 14.1077 18.7147 14.1077 18.6579C14.1077 17.7111 14.2185 16.8787 14.3825 16.1642C13.0378 16.0558 12.3861 15.3881 12.3861 14.6093C12.3861 12.4081 16.2985 10 19.6351 10ZM21.9429 26.6748C20.7274 27.0953 19.4588 27.3824 18.2031 27.5074C19.0096 28.3104 19.9248 28.9398 20.918 29.3333C21.8733 29.1781 22.783 28.918 23.6289 28.5843C23.0481 28.0286 22.4833 27.3838 21.9429 26.6748ZM25.9201 24.6746C24.9028 25.3827 23.7491 25.9883 22.5288 26.4603C23.0174 27.1818 23.5183 27.8428 24.0245 28.4202C25.0004 27.9994 25.8837 27.4809 26.6479 26.9177C26.4441 26.1613 26.199 25.4121 25.9201 24.6746ZM19.7931 23.297C18.4953 23.6926 17.1491 23.9368 15.8298 23.9866C16.2669 24.9716 16.8147 25.8807 17.453 26.6731C18.6855 26.5549 20.0075 26.2543 21.3104 25.7997C20.7715 25.0152 20.2625 24.172 19.7931 23.297ZM24.3045 21.1691C23.178 21.928 21.8881 22.5744 20.5261 23.0564C20.9788 23.9303 21.4549 24.7747 21.9471 25.5645C23.2088 25.0729 24.4354 24.44 25.5256 23.6916C25.1592 22.8286 24.7484 21.9852 24.3045 21.1691ZM27.3175 18.3049C26.7213 19.171 25.9027 19.9891 24.9326 20.7213C25.3607 21.5445 25.746 22.4062 26.0737 23.2966C27.0248 22.5772 27.8475 21.7656 28.465 20.882C28.1886 19.9988 27.8017 19.1313 27.3175 18.3049ZM18.057 19.4473C16.9648 19.7682 15.8387 19.957 14.7462 19.9729C14.858 20.9752 15.081 21.9578 15.4004 22.8906C16.6775 22.8195 17.9723 22.5639 19.2184 22.1698C18.7845 21.2733 18.3942 20.3568 18.057 19.4473ZM22.0351 17.5892C21.0623 18.246 19.9405 18.8078 18.76 19.2211C19.1277 20.1223 19.5294 21.0293 19.9575 21.9178C21.2952 21.4283 22.5586 20.7835 23.6604 20.0411C23.147 19.1839 22.6004 18.3634 22.0351 17.5892ZM24.6479 15.0537C24.1714 15.794 23.4812 16.5064 22.6471 17.1482C23.2282 17.8989 23.7862 18.7154 24.3009 19.5844C25.254 18.8662 26.0551 18.0757 26.6356 17.2576C26.0621 16.4607 25.3948 15.7173 24.6479 15.0537ZM17.0079 15.8854C16.316 16.067 15.588 16.1727 14.8489 16.1792C14.7379 16.855 14.6634 17.6314 14.6634 18.5008C14.6634 18.6064 14.6651 18.7119 14.6676 18.8173C15.6828 18.7704 16.692 18.5811 17.6545 18.2871C17.3886 17.4638 17.1705 16.6563 17.0079 15.8854ZM19.6693 14.7236C19.0316 15.1336 18.2944 15.4864 17.4985 15.7421C17.7351 16.4933 18.0063 17.2749 18.307 18.0695C19.3868 17.6786 20.392 17.1603 21.2608 16.5723C20.7369 15.912 20.203 15.2932 19.6693 14.7236ZM21.5135 12.9963C21.1874 13.4885 20.7094 13.9736 20.1207 14.4111C20.6928 14.9221 21.2699 15.5084 21.8352 16.1586C22.6076 15.565 23.2401 14.9187 23.6777 14.2708C23.0045 13.7784 22.2805 13.3484 21.5135 12.9963ZM18.9952 10.312C16.4578 10.312 13.185 12.3369 13.185 14.0463C13.185 14.7319 13.6889 15.1786 14.6304 15.2735C15.0476 14.0055 15.583 13.257 15.7136 13.0594L15.7916 13.0904C15.6841 13.321 15.3134 14.0783 15.026 15.2926C15.6205 15.2925 16.2406 15.1932 16.8464 15.0201C16.7338 14.3217 16.6726 13.6631 16.6696 13.0617L16.7688 13.0318C16.8942 13.6142 17.0536 14.2397 17.2428 14.8954C17.8751 14.6793 18.4816 14.3873 19.0148 14.0495C18.5022 13.5403 17.9939 13.0794 17.4993 12.6735L17.5727 12.6222C18.1463 12.904 18.7595 13.3007 19.3887 13.7963C19.8926 13.4318 20.3086 13.0279 20.5868 12.6168C19.775 12.3238 18.9224 12.1169 18.0374 12.0121L18.0483 11.9372C18.9922 11.9372 19.9034 12.0668 20.7708 12.303C20.8974 12.0482 20.9672 11.794 20.9672 11.5476C20.9672 11.1537 20.6495 10.3121 18.9952 10.312Z" fill="white"/>
</g>
</g>
<defs>
<clipPath id="clip0_820_3777">
<rect width="40" height="40" fill="white"/>
</clipPath>
<clipPath id="clip1_820_3777">
<rect width="20" height="20" fill="white" transform="translate(10 10)"/>
</clipPath>
</defs>
</svg>

<svg xmlns="http://www.w3.org/2000/svg" width="40" height="40" fill="none" viewBox="0 0 40 40"><g clip-path="url(#pepon_svg-a)"><path fill="#D4DAE8" d="M20 0c11.046 0 20 8.954 20 20s-8.954 20-20 20S0 31.046 0 20 8.954 0 20 0"/><path fill="#28458E" d="M26 6a8 8 0 0 1 8 8v12a8 8 0 0 1-8 8H14a8 8 0 0 1-8-8V14a8 8 0 0 1 8-8z"/><g clip-path="url(#pepon_svg-b)"><path fill="#fff" d="M19.635 10c1.35 0 2.361.558 2.361 1.61 0 .325-.092.664-.262 1.005.796.3 1.548.688 2.247 1.146.239-.465.369-.924.369-1.358 0-1.365-1.148-1.899-1.461-1.998l.019-.06c1.007.172 2.458 1.006 2.458 2.538 0 .532-.14 1.07-.396 1.6a12.7 12.7 0 0 1 2.075 2.127c.395-.712.615-1.435.615-2.141 0-.676-.184-1.098-.288-1.285l.054-.046c.137.104.96.79.96 2.087 0 .807-.232 1.612-.646 2.388.514.827.911 1.69 1.172 2.55.493-.902.77-1.868.756-2.878l.074-.018c.029.094.178.517.178 1.18 0 .967-.271 1.906-.752 2.791q.106.622.106 1.223c-.006.966-.082 1.564-.218 1.999l-.107-.028a10 10 0 0 0-.21-2.499c-.595.865-1.39 1.666-2.322 2.378q.358 1.152.57 2.348a10.3 10.3 0 0 0 1.577-1.53l.086.058C27.452 27.265 24.477 30 20.075 30c-1.946 0-3.221-.535-3.597-.674l.026-.082a12.1 12.1 0 0 0 3.766.177c-1.045-.384-2.013-1.016-2.857-1.856a14 14 0 0 1-.604.014c-3.14 0-4.779-1.525-5.125-2.144l.056-.042c.869.76 2.58 1.337 4.576 1.337q.172 0 .347-.006a11 11 0 0 1-1.568-2.73c-3.49-.076-5.081-1.836-5.01-3.403h.066c.143.832 1.33 2.32 4.527 2.32h.036a14.2 14.2 0 0 1-.553-2.95c-2.319-.136-3.573-1.364-3.573-2.681 0-.754.375-1.49.469-1.652l.068.027c-.025.084-.117.375-.117.817 0 1.381 1.197 2.334 3.101 2.356l-.001-.17c0-.947.11-1.78.274-2.494-1.344-.108-1.996-.776-1.996-1.555 0-2.2 3.913-4.609 7.25-4.609m2.308 16.675a16.5 16.5 0 0 1-3.74.832c.807.803 1.722 1.433 2.715 1.826a13 13 0 0 0 2.71-.749 16.4 16.4 0 0 1-1.685-1.91m3.977-2a16.2 16.2 0 0 1-3.391 1.785c.488.722.99 1.383 1.495 1.96.976-.42 1.86-.94 2.624-1.502a24 24 0 0 0-.728-2.243m-6.127-1.378c-1.298.396-2.644.64-3.963.69a12 12 0 0 0 1.623 2.686c1.233-.118 2.555-.419 3.857-.873a27 27 0 0 1-1.517-2.503m4.512-2.128a17 17 0 0 1-3.779 1.887c.453.874.929 1.719 1.421 2.508a17.8 17.8 0 0 0 3.579-1.872 29 29 0 0 0-1.221-2.523m3.012-2.864c-.596.866-1.414 1.684-2.384 2.416.428.823.813 1.685 1.14 2.576.952-.72 1.774-1.531 2.392-2.415a12.5 12.5 0 0 0-1.148-2.577m-9.26 1.142c-1.092.321-2.218.51-3.31.526.111 1.002.334 1.985.653 2.918a15.6 15.6 0 0 0 3.818-.721 31 31 0 0 1-1.161-2.723m3.978-1.858a14.4 14.4 0 0 1-3.275 1.632c.368.901.77 1.808 1.197 2.697a17.4 17.4 0 0 0 3.703-1.877 32 32 0 0 0-1.625-2.452m2.613-2.535c-.477.74-1.167 1.452-2 2.094a24 24 0 0 1 1.653 2.436c.953-.718 1.754-1.508 2.335-2.326a13.5 13.5 0 0 0-1.988-2.204m-7.64.831a8.8 8.8 0 0 1-2.16.294 14.3 14.3 0 0 0-.18 2.638 12.2 12.2 0 0 0 2.986-.53 24 24 0 0 1-.646-2.402m2.661-1.161a9.3 9.3 0 0 1-2.17 1.018c.236.751.507 1.533.808 2.328 1.08-.391 2.085-.91 2.954-1.498a30 30 0 0 0-1.592-1.848m1.845-1.728c-.327.492-.805.978-1.393 1.415a19 19 0 0 1 1.714 1.748c.773-.594 1.405-1.24 1.843-1.888a12.5 12.5 0 0 0-2.165-1.275m-2.519-2.684c-2.537 0-5.81 2.025-5.81 3.734 0 .686.504 1.133 1.445 1.228.418-1.268.953-2.017 1.084-2.215l.078.031c-.108.231-.479.988-.766 2.203.595 0 1.215-.1 1.82-.273a13 13 0 0 1-.176-1.958l.099-.03c.125.582.285 1.208.474 1.863a8.5 8.5 0 0 0 1.772-.845q-.772-.766-1.516-1.376l.074-.052a10.5 10.5 0 0 1 1.816 1.174c.504-.364.92-.768 1.198-1.18-.812-.292-1.665-.5-2.55-.604l.011-.075c.944 0 1.855.13 2.723.366.126-.255.196-.509.196-.755 0-.394-.317-1.236-1.972-1.236"/></g></g><defs><clipPath id="pepon_svg-a"><path fill="#fff" d="M0 0h40v40H0z"/></clipPath><clipPath id="pepon_svg-b"><path fill="#fff" d="M10 10h20v20H10z"/></clipPath></defs></svg>
